src/file.tsx.svg

<svg width="32" height="32" viewBox="0 0 32 32" fill="none" xmlns="http://www.w3.org/2000/svg">
<path d="M5.31 23V11.66H2.5V9H10.9V11.66H8V23H5.31Z" fill="#497ECF"/>
<path d="M11.5 22.15L12 19.63C12.4278 19.8836 12.8843 20.085 13.36 20.23C13.864 20.3931 14.3902 20.4774 14.92 20.48C15.4094 20.5107 15.894 20.3692 16.29 20.08C16.4576 19.9548 16.593 19.7917 16.6852 19.6039C16.7773 19.4161 16.8235 19.2091 16.82 19C16.8186 18.8121 16.7788 18.6266 16.7032 18.4546C16.6275 18.2827 16.5175 18.128 16.38 18C15.927 17.6299 15.4125 17.3422 14.86 17.15C12.7133 16.2567 11.64 14.9233 11.64 13.15C11.6352 12.5948 11.7406 12.0442 11.95 11.53C12.147 11.0412 12.4432 10.5985 12.82 10.23C13.2205 9.84741 13.6977 9.55428 14.22 9.37C14.803 9.13832 15.4228 9.01301 16.05 9C17.0928 8.96749 18.1262 9.20519 19.05 9.69L18.46 12.15C17.715 11.7122 16.864 11.4874 16 11.5C15.5479 11.4707 15.1005 11.6057 14.74 11.88C14.6012 11.9917 14.4895 12.1335 14.4133 12.2945C14.3371 12.4556 14.2984 12.6318 14.3 12.81C14.2965 12.9703 14.3237 13.1299 14.38 13.28C14.4355 13.4183 14.5132 13.5467 14.61 13.66C14.7358 13.7967 14.8806 13.9145 15.04 14.01C15.23 14.13 15.43 14.24 15.64 14.35L16.45 14.72C17.3405 15.0625 18.1263 15.6312 18.73 16.37C19.2331 17.0705 19.4898 17.918 19.46 18.78C19.4612 19.2229 19.4007 19.6638 19.28 20.09C19.0383 20.9318 18.5161 21.6657 17.8 22.17C17.3973 22.4436 16.9509 22.6465 16.48 22.77C15.9196 22.9224 15.3407 22.9964 14.76 22.99C14.1655 22.9851 13.5741 22.9044 13 22.75C12.4725 22.6272 11.9667 22.4249 11.5 22.15Z" fill="#497ECF"/>
<path d="M29.6 23H26.6L25.6 20.46C25.4333 20.0733 25.1 19.2367 24.6 17.95C24.6 18.11 24.51 18.26 24.46 18.4L24.28 18.92L24.12 19.36L23.91 19.92L23.7 20.46L22.6 23H19.6L23 15.92L19.72 9H22.72L23.72 11.56C24.0333 12.3333 24.3267 13.11 24.6 13.89C24.8133 13.2233 25.0767 12.4467 25.39 11.56L26.39 9H29.39L26.12 15.84L29.6 23Z" fill="#497ECF"/>
</svg>

<svg id="Bases" xmlns="http://www.w3.org/2000/svg" viewBox="0 0 32 32"><defs><style>.cls-1{fill:#497ecf;}</style></defs><title>file.tsx</title><path class="cls-1" d="M5.31,23V11.66H2.5V9h8.4v2.66H8V23Z"/><path class="cls-1" d="M11.5,22.15,12,19.63a6.23,6.23,0,0,0,1.36.6,5.15,5.15,0,0,0,1.56.25,2.1,2.1,0,0,0,1.37-.4A1.32,1.32,0,0,0,16.82,19a1.38,1.38,0,0,0-.44-1,5,5,0,0,0-1.52-.85q-3.22-1.34-3.22-4a4.2,4.2,0,0,1,.31-1.62,3.81,3.81,0,0,1,.87-1.3,3.91,3.91,0,0,1,1.4-.86A5.25,5.25,0,0,1,16.05,9a6.05,6.05,0,0,1,3,.69l-.59,2.46A4.72,4.72,0,0,0,16,11.5a1.88,1.88,0,0,0-1.26.38,1.18,1.18,0,0,0-.44.93,1.26,1.26,0,0,0,.08.47,1.37,1.37,0,0,0,.23.38,1.94,1.94,0,0,0,.43.35c.19.12.39.23.6.34l.81.37a5.49,5.49,0,0,1,2.28,1.65,3.9,3.9,0,0,1,.73,2.41,4.76,4.76,0,0,1-.18,1.31,3.84,3.84,0,0,1-1.48,2.08,4.28,4.28,0,0,1-1.32.6,6.29,6.29,0,0,1-1.72.22A7,7,0,0,1,13,22.75,5.34,5.34,0,0,1,11.5,22.15Z"/><path class="cls-1" d="M29.6,23h-3l-1-2.54q-.25-.58-1-2.51h0c0,.16-.09.31-.14.45l-.18.52-.16.44-.21.56-.21.54L22.6,23h-3L23,15.92,19.72,9h3l1,2.56q.47,1.16.88,2.33h0q.32-1,.79-2.33l1-2.56h3l-3.27,6.84Z"/></svg>
